lib/brands/logos/g-pay.svg

<svg xmlns="http://www.w3.org/2000/svg" fill="none" aria-hidden="true" viewBox="0 0 116 116"><g id="G Pay"><g id="Group"><g id="Group_2" opacity="0.3"><path id="Vector" fill="white" d="M57.9999 113.095C88.4293 113.095 113.097 88.4267 113.097 57.9973C113.097 27.5679 88.4293 2.89999 57.9999 2.89999C27.5705 2.89999 2.90259 27.5679 2.90259 57.9973C2.90259 88.4267 27.5705 113.095 57.9999 113.095Z" opacity="0.3"/><path id="Vector_2" stroke="#0E0D0D" d="M57.9998 112.497C88.0991 112.497 112.499 88.0966 112.499 57.9973C112.499 27.898 88.0991 3.49771 57.9998 3.49771C27.9005 3.49771 3.50024 27.898 3.50024 57.9973C3.50024 88.0966 27.9005 112.497 57.9998 112.497Z" opacity="0.3"/></g><path id="Vector_3" fill="#6E7BF2" d="M57.9999 113.1C47.7585 113.116 37.72 110.266 29.0156 104.871L65.9251 3.4657C72.4573 4.40498 78.7708 6.51836 84.5506 9.70444C102.173 19.3801 113.119 37.8935 113.097 57.9973C113.097 61.7277 112.724 65.4475 111.976 69.1032C110.536 76.1531 107.718 82.8455 103.688 88.8067C97.7058 97.6658 89.2896 104.598 79.4486 108.766C76.113 110.175 72.6494 111.253 69.1058 111.979C65.4501 112.726 61.7303 113.1 57.9999 113.1V113.1Z"/><g id="Group_3"><path id="Vector_4" fill="#4285F4" d="M39.3103 57.7571C39.3263 56.8285 39.2302 55.9053 39.0274 55.0033H26.3472V60.0146H33.792C33.5092 61.7918 32.5112 63.3715 31.0382 64.3961L31.0115 64.5616L35.0195 67.6676L35.297 67.6943C37.9814 65.1006 39.4437 61.4929 39.321 57.7625"/><path id="Vector_5" fill="#34A853" d="M26.3471 70.9658C29.6345 71.0565 32.8366 69.8877 35.2916 67.6943L31.0274 64.3908C29.6452 65.3194 28.0068 65.789 26.3471 65.741C22.8461 65.7197 19.7508 63.4622 18.662 60.1267L18.5019 60.1374L14.3339 63.3661L14.2805 63.5156C16.57 68.0839 21.2397 70.9658 26.3471 70.9658"/><path id="Vector_6" fill="#FBBC05" d="M18.6621 60.1267C18.3686 59.2675 18.2138 58.3655 18.2138 57.4583C18.2191 56.551 18.3686 55.6491 18.6514 54.7899L18.6461 54.6138L14.4247 51.3316L14.2859 51.3957C12.3647 55.2115 12.3647 59.7051 14.2859 63.5209L18.6621 60.1267Z"/><path id="Vector_7" fill="#EB4335" d="M26.3471 49.1755C28.2843 49.1435 30.1522 49.864 31.5718 51.1875L35.3823 47.4678C32.938 45.1729 29.6986 43.9134 26.3471 43.9561C21.2397 43.9561 16.57 46.8327 14.2805 51.401L18.646 54.7952C19.7454 51.4597 22.8408 49.2022 26.3471 49.1755"/></g><path id="Vector_8" fill="white" d="M60.567 58.9579V68.7723H57.429V44.5272H65.7491C67.7557 44.4845 69.693 45.237 71.1392 46.6245C73.9731 49.2342 74.1545 53.6531 71.5395 56.487C71.4114 56.6257 71.278 56.7591 71.1392 56.8872C69.6876 58.2641 67.7504 59.0059 65.7491 58.9526H60.567V58.9579ZM60.567 47.5158V55.98H65.8291C66.9925 56.0173 68.1186 55.5584 68.9298 54.7258C70.5682 53.1515 70.6162 50.5524 69.0419 48.914C69.0312 48.9033 69.0205 48.8927 69.0098 48.882C68.9832 48.8553 68.9565 48.8233 68.9298 48.8019C68.1239 47.9534 66.9979 47.4838 65.8291 47.5158H60.567ZM80.6174 51.6465C82.6187 51.5344 84.5827 52.1962 86.109 53.4877C87.4859 54.8005 88.2171 56.6471 88.121 58.547V68.7723H85.127V66.4668H84.9936C83.8836 68.26 81.9143 69.338 79.8062 69.3113C78.1198 69.3647 76.4707 68.783 75.1899 67.6836C73.9891 66.6803 73.306 65.186 73.3327 63.6223C73.2793 62.0213 74.0104 60.4896 75.2913 59.529C76.8123 58.4456 78.6535 57.9066 80.5214 58.0026C82.1171 57.9439 83.7021 58.2908 85.1217 59.0166V58.2961C85.127 57.2288 84.6521 56.2148 83.8249 55.5424C82.9923 54.8005 81.9143 54.3949 80.7935 54.4056C79.1178 54.3682 77.5434 55.2008 76.6362 56.6044L73.8824 54.8752C75.4194 52.6978 77.965 51.4704 80.6228 51.6305L80.6174 51.6465ZM76.5561 63.697C76.5508 64.5029 76.9404 65.266 77.5968 65.7357C78.2906 66.28 79.1551 66.5629 80.0357 66.5469C81.3592 66.5469 82.6241 66.0239 83.5687 65.0899C84.556 64.2307 85.127 62.9819 85.127 61.669C83.9316 60.8311 82.4906 60.4202 81.0337 60.5056C79.9023 60.4629 78.7816 60.7831 77.8476 61.4235C77.0524 61.9145 76.5721 62.7737 76.5561 63.697V63.697ZM105.343 52.1855L94.8721 76.0891H91.638L95.5232 67.7263L88.6333 52.1855H92.0436L97.0228 64.1026H97.0922L101.933 52.1855H105.343Z"/></g></g></svg>

<svg xmlns="http://www.w3.org/2000/svg" fill="none" aria-hidden="true" viewBox="0 0 116 116"><g opacity=".3"><path fill="#fff" d="M58 113.095c30.43 0 55.097-24.668 55.097-55.098S88.429 2.9 58 2.9C27.57 2.9 2.903 27.568 2.903 57.997c0 30.43 24.668 55.098 55.097 55.098Z" opacity=".3"/><path stroke="#0E0D0D" d="M58 112.497c30.1 0 54.5-24.4 54.5-54.5 0-30.099-24.4-54.5-54.5-54.5S3.5 27.899 3.5 57.998c0 30.1 24.4 54.5 54.5 54.5Z" opacity=".3"/></g><path fill="#6E7BF2" d="M58 113.1a54.85 54.85 0 0 1-28.984-8.229L65.926 3.466A54.722 54.722 0 0 1 84.55 9.704a55.026 55.026 0 0 1 28.546 48.293c0 3.73-.373 7.45-1.12 11.106a54.757 54.757 0 0 1-8.289 19.704 55.242 55.242 0 0 1-24.24 19.959 54.894 54.894 0 0 1-10.342 3.213A55.464 55.464 0 0 1 58 113.1Z"/><path fill="#4285F4" d="M39.31 57.757c.016-.928-.08-1.852-.282-2.754h-12.68v5.012h7.444a6.604 6.604 0 0 1-2.754 4.381l-.026.166 4.008 3.106.277.026a13.207 13.207 0 0 0 4.024-9.931"/><path fill="#34A853" d="M26.347 70.966c3.288.09 6.49-1.078 8.945-3.272l-4.264-3.303a7.98 7.98 0 0 1-4.68 1.35 8.134 8.134 0 0 1-7.686-5.614l-.16.01-4.168 3.23-.053.149a13.496 13.496 0 0 0 12.066 7.45"/><path fill="#FBBC05" d="M18.662 60.127a8.26 8.26 0 0 1-.448-2.669 8.69 8.69 0 0 1 .438-2.668l-.006-.176-4.221-3.282-.139.064a13.474 13.474 0 0 0 0 12.125l4.376-3.394Z"/><path fill="#EB4335" d="M26.347 49.175a7.473 7.473 0 0 1 5.225 2.013l3.81-3.72a12.962 12.962 0 0 0-9.035-3.512 13.49 13.49 0 0 0-12.066 7.445l4.365 3.394a8.172 8.172 0 0 1 7.701-5.62"/><path fill="#fff" d="M60.567 58.958v9.814H57.43V44.527h8.32a7.547 7.547 0 0 1 5.39 2.097 6.978 6.978 0 0 1 0 10.263 7.536 7.536 0 0 1-5.39 2.066h-5.182v.005Zm0-11.442v8.464h5.262a4.15 4.15 0 0 0 3.1-1.254 4.108 4.108 0 0 0 .113-5.812l-.032-.032c-.027-.027-.053-.059-.08-.08a4.122 4.122 0 0 0-3.1-1.286h-5.263Zm20.05 4.13a7.824 7.824 0 0 1 5.492 1.842 6.53 6.53 0 0 1 2.012 5.059v10.225h-2.994v-2.305h-.133a6.01 6.01 0 0 1-5.188 2.844 6.765 6.765 0 0 1-4.616-1.627 5.18 5.18 0 0 1-1.857-4.062 4.915 4.915 0 0 1 1.958-4.093 8.28 8.28 0 0 1 5.23-1.526 9.35 9.35 0 0 1 4.6 1.014v-.72a3.524 3.524 0 0 0-1.296-2.755 4.486 4.486 0 0 0-3.031-1.136 4.82 4.82 0 0 0-4.158 2.198l-2.754-1.729a7.682 7.682 0 0 1 6.74-3.245l-.004.017Zm-4.06 12.051a2.492 2.492 0 0 0 1.04 2.039 3.84 3.84 0 0 0 2.439.81 5.02 5.02 0 0 0 3.533-1.456 4.539 4.539 0 0 0 1.558-3.421 6.47 6.47 0 0 0-4.093-1.163 5.287 5.287 0 0 0-3.186.917 2.725 2.725 0 0 0-1.292 2.274Zm28.786-11.512L94.873 76.09h-3.235l3.885-8.363-6.89-15.54h3.41l4.98 11.917h.07l4.84-11.917h3.41Z"/></svg>
